X:440
M:C|
L:1/8
K:D
g|fdad f2df|gfed ceAg|fdad f2df|gbag fddg|fdad f2df|gfed ceA=c|

